assets/images/nutrifi.svg

<svg fill="none" height="816" viewBox="0 0 648 816" width="648" xmlns="http://www.w3.org/2000/svg"><g stroke="#7eeee7" stroke-opacity=".08" stroke-width="6"><path d="m164.887 69.423 413.258 196.249c34.972 16.607 57.274 51.933 57.274 90.736 0 73.716-76.579 122.281-143.005 90.737l-413.2584-196.249c-34.972-16.608-57.2736-51.933-57.2736-90.736 0-73.7164 76.5791-122.2814 143.005-90.737z"/><path d="m146.416 349.16 414.403 196.248c35.073 16.61 57.434 51.937 57.434 90.736 0 73.704-76.788 122.288-143.416 90.735l-414.4029-196.249c-35.0732-16.61-57.4341-51.936-57.4341-90.735 0-73.704 76.7881-122.288 143.416-90.735z"/><path d="m547.464 196.076c-53.317 0-96.538-43.222-96.538-96.5382 0-53.3163 43.221-96.5378 96.538-96.5378 53.316 0 96.538 43.2215 96.538 96.5378 0 53.3162-43.222 96.5382-96.538 96.5382z"/><path d="m113.265 812.18c-53.3166 0-96.538-43.221-96.538-96.538 0-53.316 43.2214-96.537 96.538-96.537 53.316 0 96.538 43.221 96.538 96.537 0 53.317-43.222 96.538-96.538 96.538z"/></g></svg>

<svg width="648" height="816" viewBox="0 0 648 816" fill="none" xmlns="http://www.w3.org/2000/svg">
<path d="M164.887 69.423L578.145 265.672C613.117 282.279 635.419 317.605 635.419 356.408C635.419 430.124 558.84 478.689 492.414 447.145L79.1556 250.896C44.1836 234.288 21.882 198.963 21.882 160.16C21.882 86.4436 98.4611 37.8786 164.887 69.423Z" stroke="#7EEEE7" stroke-opacity="0.08" stroke-width="6"/>
<path d="M146.416 349.16L560.819 545.408C595.892 562.018 618.253 597.345 618.253 636.144C618.253 709.848 541.465 758.432 474.837 726.879L60.4341 530.63C25.3609 514.02 3 478.694 3 439.895C3 366.191 79.7881 317.607 146.416 349.16Z" stroke="#7EEEE7" stroke-opacity="0.08" stroke-width="6"/>
<path d="M547.464 196.076C494.147 196.076 450.926 152.854 450.926 99.5378C450.926 46.2215 494.147 3 547.464 3C600.78 3 644.002 46.2215 644.002 99.5378C644.002 152.854 600.78 196.076 547.464 196.076Z" stroke="#7EEEE7" stroke-opacity="0.08" stroke-width="6"/>
<path d="M113.265 812.18C59.9484 812.18 16.727 768.959 16.727 715.642C16.727 662.326 59.9484 619.105 113.265 619.105C166.581 619.105 209.803 662.326 209.803 715.642C209.803 768.959 166.581 812.18 113.265 812.18Z" stroke="#7EEEE7" stroke-opacity="0.08" stroke-width="6"/>
</svg>
